;FLAVOR:UltiGCode
;TIME:9465
;MATERIAL:18579
;MATERIAL2:0

;Layer count: 145
;LAYER:0
M107
G0 F9000 X86.300 Y83.800 Z0.300
;TYPE:SKIRT
G1 F1200 X86.300 Y141.200 E6.88800
G1 X143.700 Y141.200 E13.77600
G1 X143.700 Y83.800 E20.66400
G1 X86.300 Y83.800 E27.55200
G0 F9000 X85.900 Y83.400
G1 F1200 X85.900 Y141.600 E34.53600
G1 X144.100 Y141.600 E41.52000
G1 X144.100 Y83.400 E48.50400
G1 X85.900 Y83.400 E55.48800
G0 F9000 X85.500 Y83.000
G1 F1200 X85.500 Y142.000 E62.56800
G1 X144.500 Y142.000 E69.64800
G1 X144.500 Y83.000 E76.72800
G1 X85.500 Y83.000 E83.80800
G0 F9000 X85.100 Y82.600
G1 F1200 X85.100 Y142.400 E90.98400
G1 X144.900 Y142.400 E98.16000
G1 X144.900 Y82.600 E105.33600
G1 X85.100 Y82.600 E112.51200
G0 F9000 X84.700 Y82.200
G1 F1200 X84.700 Y142.800 E119.78400
G1 X145.300 Y142.800 E127.05600
G1 X145.300 Y82.200 E134.32800
G1 X84.700 Y82.200 E141.60000
G0 F9000 X84.300 Y81.800
G1 F1200 X84.300 Y143.200 E148.96800
G1 X145.700 Y143.200 E156.33600
G1 X145.700 Y81.800 E163.70400
G1 X84.300 Y81.800 E171.07200
G0 F9000 X83.900 Y81.400
G1 F1200 X83.900 Y143.600 E178.53600
G1 X146.100 Y143.600 E186.00000
G1 X146.100 Y81.400 E193.46400
G1 X83.900 Y81.400 E200.92800
G0 F9000 X83.500 Y81.000
G1 F1200 X83.500 Y144.000 E208.48800
G1 X146.500 Y144.000 E216.04800
G1 X146.500 Y81.000 E223.60800
G1 X83.500 Y81.000 E231.16800
G0 F9000 X83.100 Y80.600
G1 F1200 X83.100 Y144.400 E238.82400
G1 X146.900 Y144.400 E246.48000
G1 X146.900 Y80.600 E254.13600
G1 X83.100 Y80.600 E261.79200
G0 F9000 X82.700 Y80.200
G1 F1200 X82.700 Y144.800 E269.54400
G1 X147.300 Y144.800 E277.29600
G1 X147.300 Y80.200 E285.04800
G1 X82.700 Y80.200 E292.80000
G0 F9000 X82.300 Y79.800
G1 F1200 X82.300 Y145.200 E300.64800
G1 X147.700 Y145.200 E308.49600
G1 X147.700 Y79.800 E316.34400
G1 X82.300 Y79.800 E324.19200
G0 F9000 X81.900 Y79.400
G1 F1200 X81.900 Y145.600 E332.13600
G1 X148.100 Y145.600 E340.08000
G1 X148.100 Y79.400 E348.02400
G1 X81.900 Y79.400 E355.96800
G0 F9000 X81.500 Y79.000
G1 F1200 X81.500 Y146.000 E364.00800
G1 X148.500 Y146.000 E372.04800
G1 X148.500 Y79.000 E380.08800
G1 X81.500 Y79.000 E388.12800
G0 F9000 X81.100 Y78.600
G1 F1200 X81.100 Y146.400 E396.26400
G1 X148.900 Y146.400 E404.40000
G1 X148.900 Y78.600 E412.53600
G1 X81.100 Y78.600 E420.67200
G0 F9000 X80.700 Y78.200
G1 F1200 X80.700 Y146.800 E428.90400
G1 X149.300 Y146.800 E437.13600
G1 X149.300 Y78.200 E445.36800
G1 X80.700 Y78.200 E453.60000
G0 F9000 X80.300 Y77.800
G1 F1200 X80.300 Y147.200 E461.92800
G1 X149.700 Y147.200 E470.25600
G1 X149.700 Y77.800 E478.58400
G1 X80.300 Y77.800 E486.91200
G0 F9000 X79.900 Y77.400
G1 F1200 X79.900 Y147.600 E495.33600
G1 X150.100 Y147.600 E503.76000
G1 X150.100 Y77.400 E512.18400
G1 X79.900 Y77.400 E520.60800
G0 F9000 X79.500 Y77.000
G1 F1200 X79.500 Y148.000 E529.12800
G1 X150.500 Y148.000 E537.64800
G1 X150.500 Y77.000 E546.16800
G1 X79.500 Y77.000 E554.68800
G0 F9000 X79.100 Y76.600
G1 F1200 X79.100 Y148.400 E563.30400
G1 X150.900 Y148.400 E571.92000
G1 X150.900 Y76.600 E580.53600
G1 X79.100 Y76.600 E589.15200
G0 F9000 X78.700 Y76.200
G1 F1200 X78.700 Y148.800 E597.86400
G1 X151.300 Y148.800 E606.57600
G1 X151.300 Y76.200 E615.28800
G1 X78.700 Y76.200 E624.00000
G0 F9000 X70.300 Y67.800
G1 F1200 X159.700 Y67.800 E634.72800
G1 X159.700 Y157.200 E645.45600
G1 X70.300 Y157.200 E656.18400
G1 X70.300 Y67.800 E666.91200
G0 F9000 X69.900 Y67.400
G1 F1200 X160.100 Y67.400 E677.73600
G1 X160.100 Y157.600 E688.56000
G1 X69.900 Y157.600 E699.38400
G1 X69.900 Y67.400 E710.20800
G0 F9000 X69.500 Y67.000
G1 F1200 X160.500 Y67.000 E721.12800
G1 X160.500 Y158.000 E732.04800
G1 X69.500 Y158.000 E742.96800
G1 X69.500 Y67.000 E753.88800
G0 F9000 X69.100 Y66.600
G1 F1200 X160.900 Y66.600 E764.90400
G1 X160.900 Y158.400 E775.92000
G1 X69.100 Y158.400 E786.93600
G1 X69.100 Y66.600 E797.95200
G0 F9000 X68.700 Y66.200
G1 F1200 X161.300 Y66.200 E809.06400
G1 X161.300 Y158.800 E820.17600
G1 X68.700 Y158.800 E831.28800
G1 X68.700 Y66.200 E842.40000
G0 F9000 X68.300 Y65.800
G1 F1200 X161.700 Y65.800 E853.60800
G1 X161.700 Y159.200 E864.81600
G1 X68.300 Y159.200 E876.02400
G1 X68.300 Y65.800 E887.23200
G0 F9000 X67.900 Y65.400
G1 F1200 X162.100 Y65.400 E898.53600
G1 X162.100 Y159.600 E909.84000
G1 X67.900 Y159.600 E921.14400
G1 X67.900 Y65.400 E932.44800
G0 F9000 X67.500 Y65.000
G1 F1200 X162.500 Y65.000 E943.84800
G1 X162.500 Y160.000 E955.24800
G1 X67.500 Y160.000 E966.64800
G1 X67.500 Y65.000 E978.04800
G0 F9000 X67.100 Y64.600
G1 F1200 X162.900 Y64.600 E989.54400
G1 X162.900 Y160.400 E1001.04000
G1 X67.100 Y160.400 E1012.53600
G1 X67.100 Y64.600 E1024.03200
G0 F9000 X66.700 Y64.200
G1 F1200 X163.300 Y64.200 E1035.62400
G1 X163.300 Y160.800 E1047.21600
G1 X66.700 Y160.800 E1058.80800
G1 X66.700 Y64.200 E1070.40000
G0 F9000 X66.300 Y63.800
G1 F1200 X163.700 Y63.800 E1082.08800
G1 X163.700 Y161.200 E1093.77600
G1 X66.300 Y161.200 E1105.46400
G1 X66.300 Y63.800 E1117.15200
G0 F9000 X65.900 Y63.400
G1 F1200 X164.100 Y63.400 E1128.93600
G1 X164.100 Y161.600 E1140.72000
G1 X65.900 Y161.600 E1152.50400
G1 X65.900 Y63.400 E1164.28800
G0 F9000 X65.500 Y63.000
G1 F1200 X164.500 Y63.000 E1176.16800
G1 X164.500 Y162.000 E1188.04800
G1 X65.500 Y162.000 E1199.92800
G1 X65.500 Y63.000 E1211.80800
G0 F9000 X65.100 Y62.600
G1 F1200 X164.900 Y62.600 E1223.78400
G1 X164.900 Y162.400 E1235.76000
G1 X65.100 Y162.400 E1247.73600
G1 X65.100 Y62.600 E1259.71200
G0 F9000 X64.700 Y62.200
G1 F1200 X165.300 Y62.200 E1271.78400
G1 X165.300 Y162.800 E1283.85600
G1 X64.700 Y162.800 E1295.92800
G1 X64.700 Y62.200 E1308.00000
G0 F9000 X64.300 Y61.800
G1 F1200 X165.700 Y61.800 E1320.16800
G1 X165.700 Y163.200 E1332.33600
G1 X64.300 Y163.200 E1344.50400
G1 X64.300 Y61.800 E1356.67200
G0 F9000 X63.900 Y61.400
G1 F1200 X166.100 Y61.400 E1368.93600
G1 X166.100 Y163.600 E1381.20000
G1 X63.900 Y163.600 E1393.46400
G1 X63.900 Y61.400 E1405.72800
G0 F9000 X63.500 Y61.000
G1 F1200 X166.500 Y61.000 E1418.08800
G1 X166.500 Y164.000 E1430.44800
G1 X63.500 Y164.000 E1442.80800
G1 X63.500 Y61.000 E1455.16800
G0 F9000 X63.100 Y60.600
G1 F1200 X166.900 Y60.600 E1467.62400
G1 X166.900 Y164.400 E1480.08000
G1 X63.100 Y164.400 E1492.53600
G1 X63.100 Y60.600 E1504.99200
G0 F9000 X62.700 Y60.200
G1 F1200 X167.300 Y60.200 E1517.54400
G1 X167.300 Y164.800 E1530.09600
G1 X62.700 Y164.800 E1542.64800
G1 X62.700 Y60.200 E1555.20000
G10
G0 F9000 X71.100 Y68.600
;TYPE:WALL-INNER
G11
G1 F1200 X158.900 Y68.600 E1565.73600
G1 X158.900 Y156.400 E1576.27200
G1 X71.100 Y156.400 E1586.80800
G1 X71.100 Y68.600 E1597.34400
G0 F9000 X77.900 Y75.400
G1 F1200 X77.900 Y149.600 E1606.24800
G1 X152.100 Y149.600 E1615.15200
G1 X152.100 Y75.400 E1624.05600
G1 X77.900 Y75.400 E1632.96000
G0 F9000 X78.300 Y75.800
;TYPE:WALL-OUTER
G1 F1200 X78.300 Y149.200 E1641.76800
G1 X151.700 Y149.200 E1650.57600
G1 X151.700 Y75.800 E1659.38400
G1 X78.300 Y75.800 E1668.19200
G0 F9000 X78.300 Y75.500
G0 X71.000 Y68.410
G0 X70.700 Y68.200
G1 F1200 X159.300 Y68.200 E1678.82400
G1 X159.300 Y156.800 E1689.45600
G1 X70.700 Y156.800 E1700.08800
G1 X70.700 Y68.200 E1710.72000
G0 F9000 X71.285 Y68.739
;TYPE:SKIN
G1 F900 X77.805 Y75.259 E1711.82648
G0 F9000 X77.759 Y75.779
G1 F900 X71.238 Y69.258 E1712.93313
G0 F9000 X71.238 Y69.824
G1 F900 X77.759 Y76.345 E1714.03978
G0 F9000 X77.759 Y76.911
G1 F900 X71.238 Y70.390 E1715.14643
G0 F9000 X71.238 Y70.956
G1 F900 X77.759 Y77.476 E1716.25300
G0 F9000 X77.759 Y78.042
G1 F900 X71.238 Y71.521 E1717.35965
G0 F9000 X71.238 Y72.087
G1 F900 X77.759 Y78.608 E1718.46630
G0 F9000 X77.759 Y79.174
G1 F900 X71.238 Y72.653 E1719.57295
G0 F9000 X71.238 Y73.218
G1 F900 X77.759 Y79.739 E1720.67960
G0 F9000 X77.759 Y80.305
G1 F900 X71.238 Y73.784 E1721.78625
G0 F9000 X71.238 Y74.350
G1 F900 X77.759 Y80.871 E1722.89290
G0 F9000 X77.759 Y81.436
G1 F900 X71.238 Y74.915 E1723.99955
G0 F9000 X71.238 Y75.481
G1 F900 X77.759 Y82.002 E1725.10620
G0 F9000 X77.759 Y82.568
G1 F900 X71.238 Y76.047 E1726.21285
G0 F9000 X71.238 Y76.612
G1 F900 X77.759 Y83.133 E1727.31950
G0 F9000 X77.759 Y83.699
G1 F900 X71.238 Y77.178 E1728.42615
G0 F9000 X71.238 Y77.744
G1 F900 X77.759 Y84.265 E1729.53280
G0 F9000 X77.759 Y84.830
G1 F900 X71.238 Y78.309 E1730.63945
G0 F9000 X71.238 Y78.875
G1 F900 X77.759 Y85.396 E1731.74610
G0 F9000 X77.759 Y85.962
G1 F900 X71.238 Y79.441 E1732.85275
G0 F9000 X78.370 Y75.259
G1 F900 X71.851 Y68.739 E1733.95915
G0 F9000 X72.416 Y68.739
G1 F900 X78.936 Y75.259 E1735.06563
G0 F9000 X79.502 Y75.259
G1 F900 X72.982 Y68.739 E1736.17211
G0 F9000 X73.548 Y68.739
G1 F900 X80.067 Y75.259 E1737.27851
G0 F9000 X80.633 Y75.259
G1 F900 X74.113 Y68.739 E1738.38499
G0 F9000 X74.679 Y68.739
G1 F900 X81.199 Y75.259 E1739.49147
G0 F9000 X81.764 Y75.259
G1 F900 X75.245 Y68.739 E1740.59786
G0 F9000 X75.811 Y68.739
G1 F900 X82.330 Y75.259 E1741.70426
G0 F9000 X82.896 Y75.259
G1 F900 X76.376 Y68.739 E1742.81074
G0 F9000 X76.942 Y68.739
G1 F900 X83.461 Y75.259 E1743.91714
G0 F9000 X84.027 Y75.259
G1 F900 X77.508 Y68.739 E1745.02353
G0 F9000 X78.073 Y68.739
G1 F900 X84.593 Y75.259 E1746.13001
G0 F9000 X85.158 Y75.259
G1 F900 X78.639 Y68.739 E1747.23641
G0 F9000 X79.205 Y68.739
G1 F900 X85.724 Y75.259 E1748.34280
G0 F9000 X86.290 Y75.259
G1 F900 X79.770 Y68.739 E1749.44928
G0 F9000 X80.336 Y68.739
G1 F900 X86.856 Y75.259 E1750.55577
G0 F9000 X87.421 Y75.259
G1 F900 X80.902 Y68.739 E1751.66216
G0 F9000 X81.467 Y68.739
G1 F900 X87.987 Y75.259 E1752.76864
G0 F9000 X88.553 Y75.259
G1 F900 X82.033 Y68.739 E1753.87512
G0 F9000 X82.599 Y68.739
G1 F900 X89.118 Y75.259 E1754.98152
G0 F9000 X89.684 Y75.259
G1 F900 X83.164 Y68.739 E1756.08800
G0 F9000 X83.730 Y68.739
G1 F900 X90.250 Y75.259 E1757.19448
G0 F9000 X90.815 Y75.259
G1 F900 X84.296 Y68.739 E1758.30088
G0 F9000 X84.862 Y68.739
G1 F900 X91.381 Y75.259 E1759.40727
G0 F9000 X91.947 Y75.259
G1 F900 X85.427 Y68.739 E1760.51375
G0 F9000 X85.993 Y68.739
G1 F900 X92.512 Y75.259 E1761.62015
G0 F9000 X93.078 Y75.259
G1 F900 X86.559 Y68.739 E1762.72654
G0 F9000 X87.124 Y68.739
G1 F900 X93.644 Y75.259 E1763.83302
G0 F9000 X94.209 Y75.259
G1 F900 X87.690 Y68.739 E1764.93942
G0 F9000 X88.256 Y68.739
G1 F900 X94.775 Y75.259 E1766.04582
G0 F9000 X95.341 Y75.259
G1 F900 X88.821 Y68.739 E1767.15230
G0 F9000 X89.387 Y68.739
G1 F900 X95.907 Y75.259 E1768.25878
G0 F9000 X96.472 Y75.259
G1 F900 X89.953 Y68.739 E1769.36517
G0 F9000 X90.518 Y68.739
G1 F900 X97.038 Y75.259 E1770.47165
G0 F9000 X97.604 Y75.259
G1 F900 X91.084 Y68.739 E1771.57814
G0 F9000 X91.650 Y68.739
G1 F900 X98.169 Y75.259 E1772.68453
G0 F9000 X98.735 Y75.259
G1 F900 X92.215 Y68.739 E1773.79101
G0 F9000 X92.781 Y68.739
G1 F900 X99.301 Y75.259 E1774.89749
G0 F9000 X99.866 Y75.259
G1 F900 X93.347 Y68.739 E1776.00389
G0 F9000 X93.912 Y68.739
G1 F900 X100.432 Y75.259 E1777.11037
G0 F9000 X100.998 Y75.259
G1 F900 X94.478 Y68.739 E1778.21685
G0 F9000 X95.044 Y68.739
G1 F900 X101.563 Y75.259 E1779.32325
G0 F9000 X102.129 Y75.259
G1 F900 X95.610 Y68.739 E1780.42964
G0 F9000 X96.175 Y68.739
G1 F900 X102.695 Y75.259 E1781.53612
G0 F9000 X103.260 Y75.259
G1 F900 X96.741 Y68.739 E1782.64252
G0 F9000 X97.307 Y68.739
G1 F900 X103.826 Y75.259 E1783.74891
G0 F9000 X104.392 Y75.259
G1 F900 X97.872 Y68.739 E1784.85539
G0 F9000 X98.438 Y68.739
G1 F900 X104.957 Y75.259 E1785.96179
G0 F9000 X105.523 Y75.259
G1 F900 X99.004 Y68.739 E1787.06819
G0 F9000 X99.569 Y68.739
G1 F900 X106.089 Y75.259 E1788.17467
G0 F9000 X106.655 Y75.259
G1 F900 X100.135 Y68.739 E1789.28115
G0 F9000 X100.701 Y68.739
G1 F900 X107.220 Y75.259 E1790.38754
G0 F9000 X107.786 Y75.259
G1 F900 X101.266 Y68.739 E1791.49402
G0 F9000 X101.832 Y68.739
G1 F900 X108.352 Y75.259 E1792.60050
G0 F9000 X108.917 Y75.259
G1 F900 X102.398 Y68.739 E1793.70690
G0 F9000 X102.963 Y68.739
G1 F900 X109.483 Y75.259 E1794.81338
G0 F9000 X110.049 Y75.259
G1 F900 X103.529 Y68.739 E1795.91986
G0 F9000 X104.095 Y68.739
G1 F900 X110.614 Y75.259 E1797.02626
G0 F9000 X111.180 Y75.259
G1 F900 X104.660 Y68.739 E1798.13274
G0 F9000 X105.226 Y68.739
G1 F900 X111.746 Y75.259 E1799.23922
G0 F9000 X112.311 Y75.259
G1 F900 X105.792 Y68.739 E1800.34561
G0 F9000 X106.358 Y68.739
G1 F900 X112.877 Y75.259 E1801.45201
G0 F9000 X113.443 Y75.259
G1 F900 X106.923 Y68.739 E1802.55849
G0 F9000 X107.489 Y68.739
G1 F900 X114.008 Y75.259 E1803.66489
G0 F9000 X114.574 Y75.259
G1 F900 X108.055 Y68.739 E1804.77128
G0 F9000 X108.620 Y68.739
G1 F900 X115.140 Y75.259 E1805.87776
G0 F9000 X115.706 Y75.259
G1 F900 X109.186 Y68.739 E1806.98424
G0 F9000 X109.752 Y68.739
G1 F900 X116.271 Y75.259 E1808.09064
G0 F9000 X116.837 Y75.259
G1 F900 X110.317 Y68.739 E1809.19712
G0 F9000 X110.883 Y68.739
G1 F900 X117.403 Y75.259 E1810.30360
G0 F9000 X117.968 Y75.259
G1 F900 X111.449 Y68.739 E1811.41000
G0 F9000 X112.014 Y68.739
G1 F900 X118.534 Y75.259 E1812.51648
G0 F9000 X119.100 Y75.259
G1 F900 X112.580 Y68.739 E1813.62296
G0 F9000 X113.146 Y68.739
G1 F900 X119.665 Y75.259 E1814.72935
G0 F9000 X120.231 Y75.259
G1 F900 X113.711 Y68.739 E1815.83584
G0 F9000 X114.277 Y68.739
G1 F900 X120.797 Y75.259 E1816.94232
G0 F9000 X121.362 Y75.259
G1 F900 X114.843 Y68.739 E1818.04871
G0 F9000 X115.409 Y68.739
G1 F900 X121.928 Y75.259 E1819.15511
G0 F9000 X122.494 Y75.259
G1 F900 X115.974 Y68.739 E1820.26159
G0 F9000 X116.540 Y68.739
G1 F900 X123.059 Y75.259 E1821.36798
G0 F9000 X123.625 Y75.259
G1 F900 X117.106 Y68.739 E1822.47438
G0 F9000 X117.671 Y68.739
G1 F900 X124.191 Y75.259 E1823.58086
G0 F9000 X124.756 Y75.259
G1 F900 X118.237 Y68.739 E1824.68726
G0 F9000 X118.803 Y68.739
G1 F900 X125.322 Y75.259 E1825.79365
G0 F9000 X125.888 Y75.259
G1 F900 X119.368 Y68.739 E1826.90013
G0 F9000 X119.934 Y68.739
G1 F900 X126.454 Y75.259 E1828.00661
G0 F9000 X127.019 Y75.259
G1 F900 X120.500 Y68.739 E1829.11301
G0 F9000 X121.065 Y68.739
G1 F900 X127.585 Y75.259 E1830.21949
G0 F9000 X128.151 Y75.259
G1 F900 X121.631 Y68.739 E1831.32597
G0 F9000 X122.197 Y68.739
G1 F900 X128.716 Y75.259 E1832.43237
G0 F9000 X129.282 Y75.259
G1 F900 X122.762 Y68.739 E1833.53885
G0 F9000 X123.328 Y68.739
G1 F900 X129.848 Y75.259 E1834.64533
G0 F9000 X130.413 Y75.259
G1 F900 X123.894 Y68.739 E1835.75172
G0 F9000 X124.459 Y68.739
G1 F900 X130.979 Y75.259 E1836.85820
G0 F9000 X131.545 Y75.259
G1 F900 X125.025 Y68.739 E1837.96469
G0 F9000 X125.591 Y68.739
G1 F900 X132.110 Y75.259 E1839.07108
G0 F9000 X132.676 Y75.259
G1 F900 X126.157 Y68.739 E1840.17748
G0 F9000 X126.722 Y68.739
G1 F900 X133.242 Y75.259 E1841.28396
G0 F9000 X133.807 Y75.259
G1 F900 X127.288 Y68.739 E1842.39035
G0 F9000 X127.854 Y68.739
G1 F900 X134.373 Y75.259 E1843.49675
G0 F9000 X134.939 Y75.259
G1 F900 X128.419 Y68.739 E1844.60323
G0 F9000 X128.985 Y68.739
G1 F900 X135.504 Y75.259 E1845.70963
G0 F9000 X136.070 Y75.259
G1 F900 X129.551 Y68.739 E1846.81602
G0 F9000 X130.116 Y68.739
G1 F900 X136.636 Y75.259 E1847.92250
G0 F9000 X137.202 Y75.259
G1 F900 X130.682 Y68.739 E1849.02898
G0 F9000 X131.248 Y68.739
G1 F900 X137.767 Y75.259 E1850.13538
G0 F9000 X138.333 Y75.259
G1 F900 X131.813 Y68.739 E1851.24186
G0 F9000 X132.379 Y68.739
G1 F900 X138.899 Y75.259 E1852.34834
G0 F9000 X139.464 Y75.259
G1 F900 X132.945 Y68.739 E1853.45474
G0 F9000 X133.510 Y68.739
G1 F900 X140.030 Y75.259 E1854.56122
G0 F9000 X140.596 Y75.259
G1 F900 X134.076 Y68.739 E1855.66770
G0 F9000 X134.642 Y68.739
G1 F900 X141.161 Y75.259 E1856.77409
G0 F9000 X141.727 Y75.259
G1 F900 X135.208 Y68.739 E1857.88049
G0 F9000 X135.773 Y68.739
G1 F900 X142.293 Y75.259 E1858.98697
G0 F9000 X142.858 Y75.259
G1 F900 X136.339 Y68.739 E1860.09337
G0 F9000 X136.905 Y68.739
G1 F900 X143.424 Y75.259 E1861.19976
G0 F9000 X143.990 Y75.259
G1 F900 X137.470 Y68.739 E1862.30624
G0 F9000 X138.036 Y68.739
G1 F900 X144.555 Y75.259 E1863.41264
G0 F9000 X145.121 Y75.259
G1 F900 X138.602 Y68.739 E1864.51903
G0 F9000 X139.167 Y68.739
G1 F900 X145.687 Y75.259 E1865.62552
G0 F9000 X146.253 Y75.259
G1 F900 X139.733 Y68.739 E1866.73200
G0 F9000 X140.299 Y68.739
G1 F900 X146.818 Y75.259 E1867.83839
G0 F9000 X147.384 Y75.259
G1 F900 X140.864 Y68.739 E1868.94487
G0 F9000 X141.430 Y68.739
